!!!COM: Music21
!!!OTL: Mazurca
!!!OMV: pezas_mazurcas_mazurca-5_mazurca-partitura.musicxml
**kern
*I"Bagpipes
*I'Bag
*clefG^2
*k[]
*M3/4
=1
!LO:TX:a:t=Allegro
*MM132
!LO:TX:a:t=[quarter]=132
2r
4gg
=||
4.ccc
8gg
8aaL
8bbJ
=
4.aa
8ff
8ggL
8aaJ
=
8ggL
8aaJ
8ggL
8ffJ
8eeL
8ddJ
=
4ee
4cc
4gg
=
4.ccc
8gg
8aaL
8bbJ
=
4.aa
8ff
8ggL
8aaJ
=
8ggL
8aaJ
8ggL
8ffJ
8eeL
8ddJ
!!linebreak:original
=
2cc
4gg
=||
4.ccc
8gg
8aaL
8bbJ
=
4.aa
8ff
8ggL
8aaJ
=
8ggL
8aaJ
8ggL
8ffJ
8eeL
8ddJ
=
4ee
4cc
4gg
=
4.ccc
8gg
8aaL
8bbJ
=
4.aa
8ff
8ggL
8aaJ
=
8ggL
8aaJ
8ggL
8ffJ
8eeL
8ddJ
!!linebreak:original
=
2cc
4gg
=||
4ee
8eeL
8ddJ
8eeL
8ffJ
=
4gg
4ee
4aa
=
4dd
8ddL
8ffJ
8eeL
8ddJ
=
4ee
4cc
4gg
=
4ee
8eeL
8ddJ
8eeL
8ffJ
=
4gg
4ee
4aa
=
4dd
8ddL
8ffJ
8eeL
8ddJ
=||
2cc
4gg
!!linebreak:original
=||
4ee
8eeL
8ddJ
8eeL
8ffJ
=
4gg
4ee
4aa
=
4dd
8ddL
8ffJ
8eeL
8ddJ
=
4ee
4cc
4gg
=
4ee
8eeL
8ddJ
8eeL
8ffJ
=
4gg
4ee
4aa
=
4dd
8ddL
8ffJ
8eeL
8ddJ
=||
2cc
4gg
!!linebreak:original
=||
8cc
8r
2r
==
*-
